COLOR/apps 16/16/gnome-mpv.svg

<svg height="16" width="16" xmlns="http://www.w3.org/2000/svg" xmlns:xlink="http://www.w3.org/1999/xlink"><radialGradient id="a" cx="165.364" cy="225.28101" gradientTransform="matrix(.16007797 .00159858 -.00109728 .12254638 -15.760389 -13.8278)" gradientUnits="userSpaceOnUse" r="112"><stop offset="0" stop-color="#ed333b"/><stop offset="1" stop-color="#1a5fb4" stop-opacity="0"/></radialGradient><radialGradient id="b" cx="66.508003" cy="55.094002" gradientTransform="matrix(.06696428 0 0 .05556649 -.559788 1.182535)" gradientUnits="userSpaceOnUse" r="112"><stop offset="0" stop-color="#62a0ea"/><stop offset="1" stop-color="#1a5fb4"/></radialGradient><path d="m3.111084 2.0531853c-.1593909 0-.3059519.0018-.4466459.0047v.05262 1.138546h-1.0740441v-1.093931c-.963308.213209-1.090394.847279-1.090394 2.650576v6.9414937c0 1.803231.127182 2.443797 1.090394 2.65596v-1.469489h1.0740441v1.555125.0079c.1402589.0025.286841.0039.4466459.003h4.8889161 4.8887869c.174938.000912.334818-.000359.487322-.0033v-1.558438h1.074044v1.455675c.925885-.221389 1.049848-.869082 1.049848-2.64643v-6.9415017c0-1.777352-.123959-2.418675-1.049848-2.640907v1.028047h-1.074044v-1.133988c-.152505-.0036-.312382-.0057-.487322-.0057h-4.8887869zm10.265025 1.846839h1.074044v1.540207h-1.074044zm-11.7857149.0518h1.074044v1.530672h-1.074044zm11.7883309 2.226815h1.074044v1.540206h-1.074044zm-11.7857159.03771h1.074045v1.530536.000142h-1.074045v-.000142zm11.7857159 2.225294h1.074044v1.5402061h-1.074044zm-11.7857159.02362h1.074045v1.5306751h-1.0740451zm11.7857159 2.2393827h1.074044v1.540206h-1.074044zm-11.7857159.0095h1.074045v1.530676h-1.074045z" fill="url(#b)" stroke-width=".068816"/><path d="m3.111084 2.0531853c-.5169189 0-.4466459.0047-.4466459.0047v1.191168h-1.0740441v-1.093931c-.963308.213209-1.090394.847279-1.090394 2.650576v6.9414947c0 1.803231.127182 2.443796 1.090394 2.65596v-1.469488h1.0740441v1.555124c0 .0079.3315009.01143.4466459.01092h4.8889161 4.8887869c.174938.000912.334818-.000359.487322-.0033v-1.558439h1.074044v1.455675c.925885-.221389 1.049848-.869082 1.049848-2.64643v-6.9415107c0-1.777352-.123959-2.418675-1.049848-2.640907v1.028047h-1.074044v-1.133988c-.152505-.0036-.312382-.0057-.487322-.0057h-4.8887869zm10.265025 1.846839h1.074044v1.540207h-1.074044zm-11.7857149.0518h1.074044v1.530672h-1.074044zm11.7883309 2.226815h1.074044v1.540206h-1.074044zm-11.7857159.03771h1.074045v1.530536h-1.074045zm11.7857159 2.225294h1.074044v1.5402061h-1.074044zm-11.7857159.02362h1.074045v1.5306751h-1.0740451zm11.7857159 2.2393827h1.074044v1.540206h-1.074044zm-11.7857159.0095h1.074045v1.530676h-1.074045z" fill="url(#a)" stroke-width=".068816"/><g fill="#fff" transform="matrix(.06696429 0 0 .07071882 -.409225 -1.168726)"><path d="m125.57683 71.562586a40 40 0 0 0 -39.999995 40.000004 40 40 0 0 0 39.999995 40 40 40 0 0 0 40-40 40 40 0 0 0 -40-40.000004zm-15.8125 20.000004h3.625.375c.69964-.006 1.39116.1548 2 .5l28 16c1.2428.68754 1.875 2.0938 1.875 3.5s-.6322 2.81244-1.875 3.5l-28 16c-.60884.3448-1.30036.504-2 .5h-.375-3.625z"/><g enable-background="new" stroke-width="2"><rect height="8" rx="4" width="128" x="61.576836" y="175.56259"/><rect height="24" rx="12" width="24" x="77.576836" y="167.56259"/></g></g><g stroke-width=".068816"><path d="m13.376953 3.4003906v.5h1.072266v-.5zm-11.7871092.0507813v.5h1.0742187v-.5zm11.7890622 2.2265625v.5h1.074219v-.5zm-11.785156.0390625v.5h1.0742188v-.5zm11.785156 2.2246093v.5h1.074219v-.5zm-11.785156.0234376v.5h1.0742188v-.5zm11.785156 2.2402342v.5h1.074219v-.5zm-11.785156.009766v.5h1.0742188v-.5zm-1.09375 1.033203v.5c0 1.803231.12663175 2.442134 1.0898438 2.654297v-.5c-.96321205-.212163-1.0898438-.851066-1.0898438-2.654297zm15 0c0 1.777348-.124896 2.425095-1.050781 2.646484v.5c.925885-.221389 1.050781-.869136 1.050781-2.646484zm-13.9101562 1.185547v.5h1.0742187v-.5zm11.7871092.003906v.5h1.072266v-.5zm-10.7128905 1.558594v.492187.007813c.1402589.0025.2874607.004806.4472656.003906h4.8886719 4.888672c.174938.000912.335777-.000965.488281-.003906v-.5c-.152504.002941-.313343.004818-.488281.003906h-4.888672-4.8886719c-.1598049.0009-.3070067-.001406-.4472656-.003906z" opacity=".2"/><path d="m3.1113281 2.0527344c-.1593909 0-.3065716.0029594-.4472656.0058594v.0527343.4472657c.140694-.0029001.2878747-.0058594.4472656-.0058594h4.8886719 4.888672c.17494 0 .335776.0022593.488281.0058594v-.5c-.152505-.0036001-.313341-.0058594-.488281-.0058594h-4.888672zm-1.5214843.1015625c-.96330805.213209-1.0898438.8490467-1.0898438 2.6523437v.5c0-1.803297.12653575-2.4391347 1.0898438-2.6523437zm12.8593752.0097656v.5c.925889.222232 1.050781.8652261 1.050781 2.6425781v-.5c0-1.777352-.124892-2.4203461-1.050781-2.6425781zm-1.072266 1.0292969v.5h1.072266v-.5zm-11.7871092.0566406v.5h1.0742187v-.5zm11.7871092 2.1894531v.5h1.072266v-.5zm-11.7871092.0429688v.5h1.0742187v-.5zm11.7890622 2.2363281v.5h1.074219v-.5zm-11.785156.0273438v.5h1.0742188v-.5zm11.785156 2.2363281v.5000001h1.074219v-.5000001zm-11.785156.0136719v.5000002h1.0742188v-.5000002zm0 2.2480472v.5h1.0742188v-.5zm11.785156 0v.5h1.074219v-.5z" fill="#fff" opacity=".3"/></g></svg>

<?xml version="1.0" encoding="UTF-8" standalone="no"?>
<svg
   xmlns:dc="http://purl.org/dc/elements/1.1/"
   xmlns:cc="http://creativecommons.org/ns#"
   xmlns:rdf="http://www.w3.org/1999/02/22-rdf-syntax-ns#"
   xmlns:svg="http://www.w3.org/2000/svg"
   xmlns="http://www.w3.org/2000/svg"
   xmlns:sodipodi="http://sodipodi.sourceforge.net/DTD/sodipodi-0.dtd"
   xmlns:inkscape="http://www.inkscape.org/namespaces/inkscape"
   height="16"
   width="16"
   version="1.1"
   id="svg10"
   sodipodi:docname="gnome-mpv.svg"
   inkscape:version="0.92.4 (5da689c313, 2019-01-14)">
  <metadata
     id="metadata16">
    <rdf:RDF>
      <cc:Work
         rdf:about="">
        <dc:format>image/svg+xml</dc:format>
        <dc:type
           rdf:resource="http://purl.org/dc/dcmitype/StillImage" />
        <dc:title></dc:title>
      </cc:Work>
    </rdf:RDF>
  </metadata>
  <defs
     id="defs14">
    <radialGradient
       id="radialGradient914"
       cx="165.364"
       cy="225.28101"
       gradientTransform="matrix(0.16007797,0.00159858,-0.00109728,0.12254638,-15.760389,-13.8278)"
       gradientUnits="userSpaceOnUse"
       r="112">
      <stop
         offset="0"
         stop-color="#ed333b"
         id="stop20" />
      <stop
         offset="1"
         stop-color="#1a5fb4"
         stop-opacity="0"
         id="stop22" />
    </radialGradient>
    <radialGradient
       id="radialGradient906"
       cx="66.508003"
       cy="55.094002"
       gradientTransform="matrix(0.06696428,0,0,0.05556649,-0.559788,1.1825353)"
       gradientUnits="userSpaceOnUse"
       r="112">
      <stop
         offset="0"
         stop-color="#62a0ea"
         id="stop15" />
      <stop
         offset="1"
         stop-color="#1a5fb4"
         id="stop17" />
    </radialGradient>
  </defs>
  <sodipodi:namedview
     pagecolor="#ffffff"
     bordercolor="#666666"
     borderopacity="1"
     objecttolerance="10"
     gridtolerance="10"
     guidetolerance="10"
     inkscape:pageopacity="0"
     inkscape:pageshadow="2"
     inkscape:window-width="1920"
     inkscape:window-height="1016"
     id="namedview12"
     showgrid="false"
     inkscape:zoom="67.563782"
     inkscape:cx="8.0000005"
     inkscape:cy="7.7235169"
     inkscape:window-x="0"
     inkscape:window-y="27"
     inkscape:window-maximized="1"
     inkscape:current-layer="g51" />
  <path
     d="m 3.111084,2.0531853 c -0.1593909,0 -0.3059519,0.0018 -0.4466459,0.0047 v 0.05262 1.138546 H 1.590394 V 2.1551203 C 0.627086,2.3683293 0.5,3.0023993 0.5,4.8056963 V 11.74719 c 0,1.803231 0.127182,2.443797 1.090394,2.65596 v -1.469489 h 1.0740441 v 1.555125 0.0079 c 0.1402589,0.0025 0.286841,0.0039 0.4466459,0.003 h 4.8889161 4.8887869 c 0.174938,9.12e-4 0.334818,-3.59e-4 0.487322,-0.0033 v -1.558438 h 1.074044 v 1.455675 c 0.925885,-0.221389 1.049848,-0.869082 1.049848,-2.64643 V 4.8056913 c 0,-1.777352 -0.123959,-2.418675 -1.049848,-2.640907 v 1.028047 h -1.074044 v -1.133988 c -0.152505,-0.0036 -0.312382,-0.0057 -0.487322,-0.0057 H 8.0000001 Z m 10.265025,1.846839 h 1.074044 v 1.540207 h -1.074044 z m -11.7857149,0.0518 h 1.074044 v 1.530672 h -1.074044 z m 11.7883309,2.226815 h 1.074044 v 1.540206 h -1.074044 z m -11.7857159,0.03771 h 1.074045 v 1.530536 1.42e-4 h -1.074045 v -1.42e-4 z m 11.7857159,2.225294 h 1.074044 v 1.5402061 h -1.074044 z m -11.7857159,0.02362 h 1.074045 V 9.9959384 H 1.593009 Z M 13.378725,10.704646 h 1.074044 v 1.540206 h -1.074044 z m -11.7857159,0.0095 h 1.074045 v 1.530676 h -1.074045 z"
     id="path31"
     inkscape:connector-curvature="0"
     style="fill:url(#radialGradient906);stroke-width:0.06881595" />
  <path
     d="m 3.111084,2.0531853 c -0.5169189,0 -0.4466459,0.0047 -0.4466459,0.0047 v 1.191168 H 1.590394 V 2.1551223 C 0.627086,2.3683313 0.5,3.0024013 0.5,4.8056983 v 6.9414947 c 0,1.803231 0.127182,2.443796 1.090394,2.65596 v -1.469488 h 1.0740441 v 1.555124 c 0,0.0079 0.3315009,0.01143 0.4466459,0.01092 h 4.8889161 4.8887869 c 0.174938,9.12e-4 0.334818,-3.59e-4 0.487322,-0.0033 V 12.93797 h 1.074044 v 1.455675 c 0.925885,-0.221389 1.049848,-0.869082 1.049848,-2.64643 V 4.8057043 c 0,-1.777352 -0.123959,-2.418675 -1.049848,-2.640907 v 1.028047 h -1.074044 v -1.133988 c -0.152505,-0.0036 -0.312382,-0.0057 -0.487322,-0.0057 H 8.0000001 Z m 10.265025,1.846839 h 1.074044 v 1.540207 h -1.074044 z m -11.7857149,0.0518 h 1.074044 v 1.530672 h -1.074044 z m 11.7883309,2.226815 h 1.074044 v 1.540206 h -1.074044 z m -11.7857159,0.03771 h 1.074045 v 1.530536 h -1.074045 z m 11.7857159,2.225294 h 1.074044 v 1.5402061 h -1.074044 z m -11.7857159,0.02362 h 1.074045 V 9.9959384 H 1.593009 Z M 13.378725,10.704646 h 1.074044 v 1.540206 h -1.074044 z m -11.7857159,0.0095 h 1.074045 v 1.530676 h -1.074045 z"
     id="path33"
     inkscape:connector-curvature="0"
     style="fill:url(#radialGradient914);stroke-width:0.06881595"
     sodipodi:nodetypes="sccccsscccccccccccssccccscscccccccccccccccccccccccccccccccccccccccc" />
  <g
     transform="matrix(0.06696429,0,0,0.07071882,-0.409225,-1.1687257)"
     id="g53">
    <path
       d="m 125.57683,71.562586 a 40,40 0 0 0 -39.999995,40.000004 40,40 0 0 0 39.999995,40 40,40 0 0 0 40,-40 40,40 0 0 0 -40,-40.000004 z m -15.8125,20.000004 h 3.625 0.375 c 0.69964,-0.006 1.39116,0.1548 2,0.5 l 28,16 c 1.2428,0.68754 1.875,2.0938 1.875,3.5 0,1.4062 -0.6322,2.81244 -1.875,3.5 l -28,16 c -0.60884,0.3448 -1.30036,0.504 -2,0.5 h -0.375 -3.625 z"
       id="path37"
       inkscape:connector-curvature="0"
       style="fill:#ffffff" />
    <g
       id="g51"
       style="stroke-width:2">
      <g
         id="g49"
         style="fill:#ffffff;enable-background:new">
        <rect
           height="8"
           rx="4"
           width="128"
           x="61.576836"
           y="175.56259"
           id="rect45" />
        <rect
           height="24"
           rx="12"
           width="24"
           x="77.576836"
           y="167.56259"
           id="rect47" />
      </g>
    </g>
  </g>
  <path
     style="fill:#000000;stroke-width:0.06881595;fill-opacity:1;opacity:0.2"
     d="M 13.376953 3.4003906 L 13.376953 3.9003906 L 14.449219 3.9003906 L 14.449219 3.4003906 L 13.376953 3.4003906 z M 1.5898438 3.4511719 L 1.5898438 3.9511719 L 2.6640625 3.9511719 L 2.6640625 3.4511719 L 1.5898438 3.4511719 z M 13.378906 5.6777344 L 13.378906 6.1777344 L 14.453125 6.1777344 L 14.453125 5.6777344 L 13.378906 5.6777344 z M 1.59375 5.7167969 L 1.59375 6.2167969 L 2.6679688 6.2167969 L 2.6679688 5.7167969 L 1.59375 5.7167969 z M 13.378906 7.9414062 L 13.378906 8.4414062 L 14.453125 8.4414062 L 14.453125 7.9414062 L 13.378906 7.9414062 z M 1.59375 7.9648438 L 1.59375 8.4648438 L 2.6679688 8.4648438 L 2.6679688 7.9648438 L 1.59375 7.9648438 z M 13.378906 10.205078 L 13.378906 10.705078 L 14.453125 10.705078 L 14.453125 10.205078 L 13.378906 10.205078 z M 1.59375 10.214844 L 1.59375 10.714844 L 2.6679688 10.714844 L 2.6679688 10.214844 L 1.59375 10.214844 z M 0.5 11.248047 L 0.5 11.748047 C 0.5 13.551278 0.62663175 14.190181 1.5898438 14.402344 L 1.5898438 13.902344 C 0.62663175 13.690181 0.5 13.051278 0.5 11.248047 z M 15.5 11.248047 C 15.5 13.025395 15.375104 13.673142 14.449219 13.894531 L 14.449219 14.394531 C 15.375104 14.173142 15.5 13.525395 15.5 11.748047 L 15.5 11.248047 z M 1.5898438 12.433594 L 1.5898438 12.933594 L 2.6640625 12.933594 L 2.6640625 12.433594 L 1.5898438 12.433594 z M 13.376953 12.4375 L 13.376953 12.9375 L 14.449219 12.9375 L 14.449219 12.4375 L 13.376953 12.4375 z M 2.6640625 13.996094 L 2.6640625 14.488281 L 2.6640625 14.496094 C 2.8043214 14.498594 2.9515232 14.5009 3.1113281 14.5 L 8 14.5 L 12.888672 14.5 C 13.06361 14.500912 13.224449 14.499035 13.376953 14.496094 L 13.376953 13.996094 C 13.224449 13.999035 13.06361 14.000912 12.888672 14 L 8 14 L 3.1113281 14 C 2.9515232 14.0009 2.8043214 13.998594 2.6640625 13.996094 z "
     id="path909" />
  <path
     style="fill:#ffffff;stroke-width:0.06881595;fill-opacity:1;opacity:0.3"
     d="M 3.1113281 2.0527344 C 2.9519372 2.0527344 2.8047565 2.0556938 2.6640625 2.0585938 L 2.6640625 2.1113281 L 2.6640625 2.5585938 C 2.8047565 2.5556937 2.9519372 2.5527344 3.1113281 2.5527344 L 8 2.5527344 L 12.888672 2.5527344 C 13.063612 2.5527344 13.224448 2.5549937 13.376953 2.5585938 L 13.376953 2.0585938 C 13.224448 2.0549937 13.063612 2.0527344 12.888672 2.0527344 L 8 2.0527344 L 3.1113281 2.0527344 z M 1.5898438 2.1542969 C 0.62653575 2.3675059 0.5 3.0033436 0.5 4.8066406 L 0.5 5.3066406 C 0.5 3.5033436 0.62653575 2.8675059 1.5898438 2.6542969 L 1.5898438 2.1542969 z M 14.449219 2.1640625 L 14.449219 2.6640625 C 15.375108 2.8862945 15.5 3.5292886 15.5 5.3066406 L 15.5 4.8066406 C 15.5 3.0292886 15.375108 2.3862945 14.449219 2.1640625 z M 13.376953 3.1933594 L 13.376953 3.6933594 L 14.449219 3.6933594 L 14.449219 3.1933594 L 13.376953 3.1933594 z M 1.5898438 3.25 L 1.5898438 3.75 L 2.6640625 3.75 L 2.6640625 3.25 L 1.5898438 3.25 z M 13.376953 5.4394531 L 13.376953 5.9394531 L 14.449219 5.9394531 L 14.449219 5.4394531 L 13.376953 5.4394531 z M 1.5898438 5.4824219 L 1.5898438 5.9824219 L 2.6640625 5.9824219 L 2.6640625 5.4824219 L 1.5898438 5.4824219 z M 13.378906 7.71875 L 13.378906 8.21875 L 14.453125 8.21875 L 14.453125 7.71875 L 13.378906 7.71875 z M 1.59375 7.7460938 L 1.59375 8.2460938 L 2.6679688 8.2460938 L 2.6679688 7.7460938 L 1.59375 7.7460938 z M 13.378906 9.9824219 L 13.378906 10.482422 L 14.453125 10.482422 L 14.453125 9.9824219 L 13.378906 9.9824219 z M 1.59375 9.9960938 L 1.59375 10.496094 L 2.6679688 10.496094 L 2.6679688 9.9960938 L 1.59375 9.9960938 z M 1.59375 12.244141 L 1.59375 12.744141 L 2.6679688 12.744141 L 2.6679688 12.244141 L 1.59375 12.244141 z M 13.378906 12.244141 L 13.378906 12.744141 L 14.453125 12.744141 L 14.453125 12.244141 L 13.378906 12.244141 z "
     id="path913" />
</svg>
